!!!!SEGMENT: pl-kj--bj-muz-10210-iii-4_zarebski-juliusz--cracovienne-op-23-no-4.krn
!!!cenid: 18xx:3548
!!!COM: Zarębski, Juliusz
!!!COM-rismid: pe30020631
!!!CDT:
!!!CNT:
!!!OTL: Cracovienne op. 23 no. 4
!!!PDT:
!!!AGN:
!!!SMS-siglum: PL-Kj
!!!SMS-shelfmark: BJ Muz. 10210 III 4
!!!SMS-shelfwork: W
!!!SMS-variant:
!!!SMS-altvar:
!!!NIFC-rismid:
!!!URL-scan: https://polona.pl/item/a-travers-pologne-danses-et-melodies-pour-piano-a-quatre-mains-oeuvre-23-no-4,MTEzMTYxNzIz/3/#info:metadata
!!!ONB-nifc:
!!!OMD: Allegretto.
!!!AIN: 2 piano
!!!key: G
**kern	**kern	**dynam	**kern	**fing	**kern	**dynam
*part2	*part2	*part2	*part1	*part1	*part1	*part1
*staff4	*staff3	*	*staff2	*staff2	*staff1	*
*I"PIANO.	*I"PIANO.	*	*I"PIANO.	*	*I"PIANO.	*
*I'Secondo.	*Secondo.	*	*I'Primo.	*	*I'Primo.	*
*Ipiano	*Ipiano	*	*Ipiano	*	*Ipiano	*
*ICklav	*ICklav	*	*ICklav	*	*ICklav	*
*clefF4	*clefF4	*	*clefG2	*	*clefG2	*
*k[f#]	*k[f#]	*	*k[f#]	*	*k[f#]	*
*G:	*G:	*	*G:	*	*G:	*
*M2/4	*M2/4	*	*M2/4	*	*M2/4	*
=1	=1	=1	=1	=1	=1	=1
!	!	!	!	!	!LO:TX:b:i:t=grazioso	!
!	!LO:TX:a:B:t=Allegretto.	!	!	!	!LO:TX:a:B:t=Allegretto.	!LO:DY:b
2GGG/ 2GG	8r	p	2r	.	8b'\L	p
.	.	.	.	.	(<8qb/	.
.	8D'\L 8G 8B	.	.	.	8dd'\J)	.
.	8G'\ 8B 8d	.	.	.	(8.g^>/L	.
.	8D'\J 8G 8B	.	.	.	.	.
.	.	.	.	.	16b/Jk)	.
=2	=2	=2	=2	=2	=2	=2
2DD/	8r	.	2r	.	(16b/LL	.
.	.	.	.	.	16a'/JJ)	.
.	8D'\L 8F# 8c	.	.	.	4a^>/	.
.	8F#'\ 8c 8d	.	.	.	.	.
.	8D'\J 8F# 8c	.	.	.	(16a/LL	.
.	.	.	.	.	16g#X/JJ	.
=3	=3	=3	=3	=3	=3	=3
2DD/	8r	.	2r	.	8a'/L)	.
.	.	.	.	.	(8qa/	.
.	8D'\L 8F# 8c	.	.	.	8cc'/J)	.
.	8F#'\ 8c 8d	.	.	.	(8.f#^>/L	.
.	8D'\J 8F# 8c	.	.	.	.	.
.	.	.	.	.	16a/Jk)	.
=4	=4	=4	=4	=4	=4	=4
2GGG/ 2GG	8r	.	2r	.	(16a/LL	.
.	.	.	.	.	16g'/JJ)	.
.	8D'\ 8G 8B	.	.	.	4g^>/	.
.	4E^>\ 4B 4d	.	.	.	.	.
.	.	.	.	.	(>16b/LL	.
.	.	.	.	.	16a/JJ	.
!LO:LB:g=original	!LO:LB:g=original	!	!LO:LB:g=original	!	!LO:LB:g=original	!
=5	=5	=5	=5	=5	=5	=5
(<4GG/ 4G	8r	.	2r	.	8cc'\L)	.
.	.	.	.	.	8qb/	.
.	8B'\ 8d	.	.	.	8dd'\J	.
4FFn/ 4Fn	8r	.	.	.	(8.g#X^>/L	.
.	8B'\ 8d	.	.	.	.	.
.	.	.	.	.	16b/Jk)	.
=6	=6	=6	=6	=6	=6	=6
2EE/) 2E	8r	.	2r	.	(16b/LL	.
.	.	.	.	.	16a'/JJ)	.
.	8F#'\L 8A 8c#X	.	.	.	4a^>/	.
.	8A'\ 8c# 8e	.	.	.	.	.
.	8G'\J 8A 8c#	.	.	.	(16a/LL	.
.	.	.	.	.	16g#X/JJ	.
=7	=7	=7	=7	=7	=7	=7
(<4EE-X/ 4E-X	8r	.	2r	.	8a'/L)	.
.	.	.	.	.	(8qa/	.
.	8A'\ 8cn	.	.	.	8cc'/J)	.
4DD/ 4D	8r	.	.	.	(8.f#^>/L	.
.	8A'\ 8c	.	.	.	.	.
.	.	.	.	.	16a/Jk)	.
=8	=8	=8	=8	=8	=8	=8
2GGG/) 2GG	8r	.	2r	.	(16a/LL	.
.	.	.	.	.	16g'/JJ)	.
.	8D'\ 8G 8B	.	.	.	4g^>/	.
.	4G^>\ 4B 4d	.	.	.	.	.
.	.	.	.	.	(>16g/LL	f
.	.	.	.	.	16f#/JJ	.
!LO:LB:g=original	!LO:LB:g=original	!	!LO:LB:g=original	!	!LO:LB:g=original	!
=9	=9	=9	=9	=9	=9	=9
!	!	!LO:DY:b	!	!	!	!
2GGG/ 2GG	8r	f	8r	.	8g'\L)	.
.	8D'\L 8G 8B	.	8g'/	.	8b'\J 8gg	.
.	8G'\ 8B 8d	.	4g^/	.	8.b^\L 8.gg	.
.	8D'\J 8G 8B	.	.	.	.	.
.	.	.	.	.	16dd\Jk 16ff#	.
=10	=10	=10	=10	=10	=10	=10
2CC/ 2C	8r	.	8g'/	.	(16dd\LL 16ff#	.
.	.	.	.	.	16cc\JJ) 16ee	.
.	8E'\L 8G 8c	.	4g^/	.	4cc^\ 4ee	.
.	8G'\ 8c 8e	.	.	.	.	.
.	8E'\J 8G 8c	.	8g/	.	(16cc\LL 16ee	.
.	.	.	.	.	16dd#X\JJ)	.
=11	=11	=11	=11	=11	=11	=11
2CC/ 2C	8r	.	(16cc\LL	.	(16ee\LL	<
.	.	.	16b\	.	16dd#X\	.
.	8E'\L 8G 8c	.	16cc\	.	16ee\	.
.	.	.	16ddn\JJ	.	16ff#\JJ	.
.	8G'\ 8c 8e	.	16ff#\LL	.	16aa\LL	.
.	.	.	16ee\	.	16gg\	[
.	8E'\J 8G 8c	.	16dd\	.	16ff#\	.
.	.	.	16cc\JJ)	.	16ee\JJ)	.
=12	=12	=12	=12	=12	=12	=12
2GGG/ 2GG	8r	.	(16cc\LL	.	(16ee\LL	.
.	.	.	16b'\JJ)	.	16ddn'\JJ)	.
.	8D'\L 8G 8B	.	4b^\	.	4dd^\	.
.	8G'\ 8B 8d	.	.	.	.	.
!	!	!LO:DY:b	!	!	!	!LO:DY:b
.	8D'\J 8G 8B	p	(<16b/LL	.	(>16dd\LL	p
.	.	.	16a/JJ	.	16cc\JJ	.
!LO:LB:g=original	!LO:LB:g=original	!	!LO:LB:g=original	!	!LO:LB:g=original	!
=13	=13	=13	=13	=13	=13	=13
(<4GG/ 4G	8r	.	8g'/)	.	8b'\L)	.
.	.	.	.	.	(<8qb/	.
.	8B'\L 8d	.	8r	.	8dd'\J)	.
4FFn/ 4Fn	8r	.	4r	.	(8.g#X/L	.
.	8B'\J 8d	.	.	.	.	.
.	.	.	.	.	16b/Jk)	.
=14	=14	=14	=14	=14	=14	=14
2EE/) 2E	8r	.	2r	.	(16b/LL	.
.	.	.	.	.	16a'/JJ)	.
.	8G'\L 8A 8c#X	.	.	.	4a^>/	.
.	8A'\ 8c# 8e	.	.	.	.	.
.	8G'\J 8A 8c#	.	.	.	(16a/LL	.
.	.	.	.	.	16g#X/JJ	.
=15	=15	=15	=15	=15	=15	=15
(<4EE-X/ 4E-X	8r	.	2r	.	8a'/L)	.
.	.	.	.	.	(8qa/	.
.	8A'\L 8cn	.	.	.	8cc'/J)	.
4DD/ 4D	8r	.	.	.	(8.f#^>/L	.
.	8A'\J 8c	.	.	.	.	.
.	.	.	.	.	16a/Jk)	.
=16	=16	=16	=16	=16	=16	=16
2GGG/) 2GG	8r	.	4r	.	(16a/LL	.
.	.	.	.	.	16g'/JJ)	.
.	8D\ 8G 8B	.	.	.	4g^>/	.
.	4G^>\ 4B 4d	.	8r	.	.	.
!	!	!	!	!	!	!LO:DY:b
.	.	.	(>16g/LL	.	(>16gg\LL	f
.	.	.	16f#/JJ	.	16ff#\JJ	.
!LO:PB:g=original	!LO:PB:g=original	!	!LO:PB:g=original	!	!LO:PB:g=original	!
=17	=17	=17	=17	=17	=17	=17
!	!	!LO:DY:b	!	!	!	!
2GGG/ 2GG	8r	f	8g'\L)	.	8gg'\L)	.
.	8D'\L 8G 8B	.	8b'\J 8gg	.	8bb'\J 8ggg	.
.	8G'\ 8B 8d	.	(8.b^>\L 8.gg	.	(8.bb^>\L 8.ggg	.
.	8D'\J 8G 8B	.	.	.	.	.
.	.	.	16dd\Jk) 16ff#	.	16ddd\Jk) 16fff#	.
=18	=18	=18	=18	=18	=18	=18
2GGG/ 2GG	8r	.	(16dd\LL 16ff#	.	(16ddd\LL 16fff#	.
.	.	.	16cc'\JJ) 16ee	.	16ccc'\JJ) 16eee	.
.	8E'\L 8G 8c	.	4cc^>\ 4ee	.	4ccc^>\ 4eee	.
.	8G'\J 8c 8e	.	.	.	.	.
.	(>16c\LL	.	(16ee\LL	.	(16eee\LL	.
.	16B\JJ	.	16dd#X\JJ	.	16ddd#X\JJ	.
=19	=19	=19	=19	=19	=19	=19
8GGG'/L 8GG	16c\LL	.	16ee\LL	.	16eee\LL	<
.	16B\	.	16dd#X\	.	16ddd#X\	.
8GG'/	16c\	.	16ee\	.	16eee\	.
.	16dn\JJ	.	16ff#\JJ	.	16fff#\JJ	.
8C'/	16f#\LL	.	16aa\LL	.	16aaa\LL	.
.	16e\	.	16gg\	.	16ggg\	.
8GG'/J	16d\	.	16ff#\	.	16fff#\	.
.	16c\JJ)	.	16ee\JJ)	.	16eee\JJ)	[
=20	=20	=20	=20	=20	=20	=20
2GGG/ 2GG	(16c\LL	.	(16ee\LL	.	(16eee\LL	.
.	16B'\J)	.	16ddn'\JJ)	.	16dddn'\JJ)	.
.	8B^>\J	.	4dd^\	.	4ddd^\	.
!	!	!LO:DY:b	!	!	!	!
.	8G'\L 8B 8d	p	.	.	.	.
!	!	!	!	!	!	!LO:DY:b
.	8D'\J 8G 8B	.	8r	.	(>16dd\LL	p
.	.	.	.	.	16cc\JJ	.
=21	=21	=21	=21	=21	=21	=21
(<4GG/	8r	.	2r	.	8b'\L)	.
.	.	.	.	.	(<8qb/	.
.	8G'\L 8B 8d	.	.	.	8dd'\J)	.
4EE/	8G'\ 8c#X	.	.	.	(8.g^>/L	.
.	8E'\J 8G	.	.	.	.	.
.	.	.	.	.	16b/Jk)	.
=22	=22	=22	=22	=22	=22	=22
2EE-X/)	8r	.	2r	.	(16b/LL	.
.	.	.	.	.	16a'/JJ)	.
.	8E-X'\L 8F#X 8cn	.	.	.	4a^>/	.
.	8F#'\ 8c 8e-X	.	.	.	.	.
.	8E-'\J 8F# 8c	.	.	.	(>16a/LL	.
.	.	.	.	.	16g#X/JJ	.
!LO:LB:g=original	!LO:LB:g=original	!	!LO:LB:g=original	!	!LO:LB:g=original	!
=23	=23	=23	=23	=23	=23	=23
2DD/	8r	.	2r	.	8a'\L)	.
.	.	.	.	.	(<8qa/	.
.	8D'\L 8F# 8c	.	.	.	8cc'\J)	.
.	8F#'\ 8c 8d	.	.	.	(8.f#/L	.
.	8D'\J 8F# 8c	.	.	.	.	.
.	.	.	.	.	16a/Jk)	.
=24	=24	=24	=24	=24	=24	=24
2GGG/ 2GG	8r	.	2r	.	(16a/LL	.
.	.	.	.	.	16g'/JJ)	.
.	8D'\ 8G 8B	.	.	.	4g^>/	.
.	4G^>\ 4B 4d	.	.	.	.	.
!	!	!	!	!	!	!LO:DY:b
.	.	.	.	.	(16gg\LL	f
.	.	.	.	.	16ff#\JJ)	.
=25	=25	=25	=25	=25	=25	=25
!	!LO:TX:b:i:t=marcato.	!	!	!	!LO:TX:a:i:t=marcato	!
.	.	.	.	.	(<8qff#/	.
!	!	!LO:DY:b	!	!	!	!
4.EE/ 4.E	8r	f	8g/L 8b	.	(16ee\LL)	.
.	.	.	.	.	16dd#X\	.
.	(8c\	.	8a/J	.	16ee\	.
.	.	.	.	.	16ff#\JJ)	.
.	[4B\)	.	8.g/L 8.b	.	8.gg'\L	.
8EE'/ 8E	.	.	.	.	.	.
.	.	.	16g/Jk 16b	.	16gg'\Jk	.
=26	=26	=26	=26	=26	=26	=26
4.BBB/ 4.BB	(8B\L]	.	8a'/	.	8dd#X'\ 8gg	.
.	8c\J	.	4a^</	.	4dd#^>\ 4ff#	.
.	[4B\)	.	.	.	.	.
8BBB'/ 8BB	.	.	8a/	.	8dd#\	.
=27	=27	=27	=27	=27	=27	=27
.	.	.	.	.	(<8qff#/	.
4.EE/ 4.E	(8B\L]	.	(<8g/L 8b	.	(16ee\LL)	.
.	.	.	.	.	16dd#X\	.
.	8c\J	.	8a/J	.	16ee\	.
.	.	.	.	.	16ff#\JJ	.
.	[4B\)	.	8g'/L) 8b	.	8gg'\L)	.
8EE'/ 8E	.	.	8g'/J 8b	.	8gg'\J	.
=28	=28	=28	=28	=28	=28	=28
4.BBB/ 4.BB	(8B\L]	.	8a'/	.	8dd#X'\ 8gg	.
.	8c\J	.	4.a^>/	.	4.dd#^>\ 4.ff#	.
.	[4B\)	.	.	.	.	.
8BBB'/ 8BB	.	.	.	.	.	.
=29	=29	=29	=29	=29	=29	=29
4.EE/ 4.E	(8B\L]	.	(<8g/L 8b	.	8gg'\L	.
.	.	.	.	.	(<8qaa/	.
.	8c\J	.	8a^</J	.	(>16gg^>\L)	.
.	.	.	.	.	16ff#\JJ	.
.	[4B\)	.	4g/)	.	4ee\)	.
8EE'/ 8E	.	.	.	.	.	.
!LO:LB:g=original	!LO:LB:g=original	!	!LO:LB:g=original	!	!LO:LB:g=original	!
=30	=30	=30	=30	=30	=30	=30
4.BBB/ 4.BB	(8B\L]	.	8f#'/ 8a	.	8dd#X'\	.
.	8c\J	.	4f#^</ 4a	.	4dd#^>\ 4ff#	.
.	[4B\)	.	.	.	.	.
8BBB'/ 8BB	.	.	8f#/ 8a	.	8dd#\	.
=31	=31	=31	=31	=31	=31	=31
4.BBB/ 4.BB	(8B\L]	.	8f#'/L 8a	.	8b'\L	.
.	8c\J	.	8f#'/J 8a	.	8b'\J	.
.	[4B\)	.	8f#^</L 8a	.	(>8b^>\L	.
8BBB'/ 8BB	.	.	8f#/J 8a	.	16cc#X\L	.
.	.	.	.	.	16dd#X\JJ)	.
=32	=32	=32	=32	=32	=32	=32
4EE/ 4E	(8B\L]	.	4e/ 4g	.	4ee\	.
.	8c\J)	.	.	.	.	.
4BBB^</ 4BB	4D#X^>\ 4A [4B	.	4f#^</ 4a	.	(>8.dd#X^>\L 8.bb	.
.	.	.	.	.	16aa\Jk	.
=33	=33	=33	=33	=33	=33	=33
4.EE/ 4.E	(8B\L]	.	(<8g/L 8b	.	8gg\L)	.
.	.	.	.	.	(8qaa/	.
.	8c\J	.	8a^</J	.	(16gg^\L)	.
.	.	.	.	.	16ff#\JJ	.
.	[4B\)	.	4g/)	.	4ee\)	.
8EE'/ 8E	.	.	.	.	.	.
=34	=34	=34	=34	=34	=34	=34
4.BBB/ 4.BB	(8B\L]	.	8f#'/ 8a	.	8dd#X'\	.
.	8c\J	.	4f#^</ 4a	.	4dd#^>\ 4ff#	.
.	[4B\)	.	.	.	.	.
8BBB'/ 8BB	.	.	8f#/ 8a	.	8dd#\	.
=35	=35	=35	=35	=35	=35	=35
4.BBB/ 4.BB	(8B\L]	.	8f#'/L 8a	.	8b'\L	.
.	8c\J	.	8f#'/J 8a	.	8b'\J	.
.	4B\)	.	8f#^</L 8a	.	(8b^>\L	.
8BBB/ 8BB	.	.	8f#/J 8a	.	16cc#X\L	.
.	.	.	.	.	16dd#X\JJ)	.
=36	=36	=36	=36	=36	=36	=36
4EE/ 4E	4G\ 4B	.	4e/ 4g 4b	.	(8ee\L	<
.	.	.	.	.	16ff#\L	.
.	.	.	.	.	16gg\JJ	.
4r	4r	.	(16a\LL	.	16aa\LL	.
.	.	.	16b\	.	16bb\	.
.	.	.	16cc#X\	.	16ccc#X\	.
.	.	.	16dd#X\JJ)	.	16ddd#X\JJ)	[
!LO:LB:g=original	!LO:LB:g=original	!	!LO:LB:g=original	!	!LO:LB:g=original	!
=37	=37	=37	=37	=37	=37	=37
!	!	!LO:DY:b	!	!	!	!LO:DY:b
8EE'/L 8E	8r	ff	16ee\LL	.	16eee\LL	ff
.	.	.	16dd#X\	.	16ddd#X\	.
8BBB'/J 8BB	8G'\ 8B 8e	.	16ee\	.	16eee\	.
.	.	.	16ff#\JJ	.	16fff#\JJ	.
8EE'/L 8E	(16G\LL 16B	.	8.gg\L	.	8.ggg\L	.
.	16A#X\	.	.	.	.	.
8BBB'/J 8BB	16G\ 16B	.	.	.	.	.
.	16c\JJ)	.	16gg\Jk	.	16ggg\Jk	.
=38	=38	=38	=38	=38	=38	=38
8DD#X'/L 8D#X	8G'\ 8B	.	8dd#X'\ 8gg	.	8ddd#X'\ 8ggg	.
8BBB'/J 8BB	4An^>\ 4c	.	4dd#^>\ 4ff#	.	4ddd#^>\ 4fff#	.
8DD#'/L 8D#	.	.	.	.	.	.
8BBB'/J 8BB	8A\ 8B 8d#X	.	8dd#\	.	8ddd#\	.
=39	=39	=39	=39	=39	=39	=39
.	.	.	(<8qff#/	.	(<8qfff#/	.
8EE'/L 8E	8r	.	(16ee\LL)	.	(16eee\LL)	.
.	.	.	16dd#X\	.	16ddd#X\	.
8BBB'/J 8BB	8G'\ 8B 8e	.	16ee\	.	16eee\	.
.	.	.	16ff#\JJ)	.	16fff#\JJ)	.
8EE'/L 8E	(>16G\LL 16B	.	8gg'\L	.	8ggg'\L	.
.	16A#X\	.	.	.	.	.
8BBB'/J 8BB	16G\ 16B	.	8gg'\J	.	8ggg'\J	.
.	16c\JJ)	.	.	.	.	.
=40	=40	=40	=40	=40	=40	=40
8DD#X'/L 8D#X	8An\ 8c	.	8a'\ 8dd#X 8gg	.	8aa'\ 8ddd#X 8ggg	.
8BBB'/J 8BB	4A\ 4c 4d#X	.	4.a^>\ 4.dd# 4.ff#	.	4.aa^>\ 4.ddd# 4.fff#	.
8DD#'/L 8D#	.	.	.	.	.	.
8BBB'/J 8BB	8A\ 8B 8d#	.	.	.	.	.
=41	=41	=41	=41	=41	=41	=41
8EE'/L 8E	8r	.	8gg'\L	.	8ggg'\L	.
.	.	.	(<8qaa/	.	(<8qaaa/	.
8BBB'/J 8BB	8A'\ 8c	.	16gg^>\L)	.	16ggg^>\L)	.
.	.	.	16ff#\JJ	.	16fff#\JJ	.
8EE'/L 8E	(8G^>\L 8B 8e	.	4ee\	.	4eee\	.
8BBB'/J 8BB	16dn\L	.	.	.	.	.
.	16c\JJ)	.	.	.	.	.
=42	=42	=42	=42	=42	=42	=42
8FF#'/L 8F#	8A'\ 8B	.	8dd#X'\	.	8ddd#X'\	.
8BBB'/J 8BB	4A^>\ 4c	.	4dd#^>\ 4ff#	.	4ddd#^>\ 4fff#	.
8FF#'/L 8F#	.	.	.	.	.	.
8BBB'/J 8BB	8A\ 8B	.	8dd#\ 8ff#	.	8ddd#\	.
=43	=43	=43	=43	=43	=43	=43
8DD#X'/L 8D#X	8r	.	8a'\L 8b	.	8aa'\L 8bb	.
8BBB'/J 8BB	8A'\L 8d#X 8f#	.	8a'\J 8b	.	8aa'\J 8bb	.
8DD#'/L 8D#	8r	.	(8a^>\L 8b	.	(8aa^>\L 8bb	.
8BBB'/J 8BB	8A'\J 8d# 8f#	.	16cc#X\L	.	16ccc#X\L	.
.	.	.	16dd#X\JJ)	.	16ddd#X\JJ)	.
!LO:LB:g=original	!LO:LB:g=original	!	!LO:LB:g=original	!	!LO:LB:g=original	!
=44	=44	=44	=44	=44	=44	=44
8EE'/L 8E	8r	.	4g\ 4b 4ee	.	4gg\ 4bb 4eee	.
8BBB'/J 8BB	8G'\ 8B 8e	.	.	.	.	.
8EE'/L 8E	4A^>\ 4B 4d#X	.	8.b^>\L	.	8.bb^>\L 8.bbb	.
8BBB'/J 8BB	.	.	.	.	.	.
.	.	.	16aa\Jk	.	16aaa\Jk	.
=45	=45	=45	=45	=45	=45	=45
8EE/L 8E	8r	.	8gg\L	.	8ggg\L	.
.	.	.	(<8qaa/	.	(<8qaaa/	.
8BBB/J 8BB	8A'\ 8c	.	(16gg^>\L)	.	(16ggg^>\L)	.
.	.	.	16ff#\JJ	.	16fff#\JJ	.
8EE/L 8E	(>8G^>\L 8B 8e	.	4ee\)	.	4eee\)	.
8BBB/J 8BB	16dn\L	.	.	.	.	.
.	16c\JJ	.	.	.	.	.
=46	=46	=46	=46	=46	=46	=46
8DD#X/L 8D#X	8A'\) 8B	.	8dd#X'\	.	8ddd#X'\	.
8BBB/J 8BB	4A^>\ 4c	.	4dd#^>\ 4ff#	.	4ddd#^>\ 4fff#	.
8DD#'/L 8D#	.	.	.	.	.	.
8BBB'/J 8BB	8A\ 8B	.	8dd#\ 8ff#	.	8ddd#\	.
=47	=47	=47	=47	=47	=47	=47
8DD#X'/L 8D#X	8r	.	8a'\L 8b	.	8aa'\L 8bb	.
8BBB'/J 8BB	8A'\ 8d#X 8f#	.	8a'\J 8b	.	8aa'\J 8bb	.
8DD#'/L 8D#	8r	.	(8a^>\L 8b	.	(8aa^>\L 8bb	.
8BBB'/J 8BB	8A'\ 8d# 8f#	.	16cc#X\L	.	16ccc#X\L	.
.	.	.	16dd#X\JJ)	.	16ddd#X\JJ)	.
=48	=48	=48	=48	=48	=48	=48
!	!	!LO:HP:t=dim. e rit. molto	!	!	!	!LO:HP:t=dim. e rit. molto
4EE/ 4E	(>4G\ 4B	>	8g\L 8ee	.	(8gg\L 8eee	>
.	.	.	8dd#X\J	.	8ddd#X\J	.
4FFF#/ 4FF#	4D\ 4A 4dn	.	8a\L 8ddn	.	8aa\L 8dddn	.
.	.	.	16cc#X\L	.	16ccc#X\L	.
.	.	.	16ccn\JJ	.	16cccn\JJ)	.
=49	=49	=49	=49	=49	=49	=49
4GGG/ 4GG	4D\ 4G 4B	.	4g\ 4dd	.	(8gg\L 8bb	.
.	.	.	.	.	8aa#X\J	.
4AAA/ 4AA	4E\) 4G 4c#X	.	4g\ 4cc#X	.	8ee\L 8aan	.
.	.	.	.	.	16gg#X\L	.
.	.	.	.	.	16ggn\JJ)	.
=50	=50	=50	=50	=50	=50	=50
2DD/ 2D	(>8F#\L 8A	.	8a\L 8dd	.	(8ff#\L	.
.	8G\J 8B-X	.	8g\J 8cc#X	.	8ee\J	.
.	4A\) 4cn	.	4f#/ 4a	.	8dd\L	.
.	.	.	.	.	16cc#X\L	.
.	.	.	.	.	16ccn\JJ)	.
!LO:PB:g=original	!LO:PB:g=original	!	!LO:PB:g=original	!	!LO:PB:g=original	!
=51	=51	=51	=51	=51	=51	=51
!	!LO:TX:a:i:t=a tempo	!LO:DY:b	!	!	!	!
8GGG/	8Bn'\L	p	8r	.	8r	.
!	!	!	!	!	!LO:TX:a:i:t=a tempo	!
.	(<8qB/	.	.	.	.	.
!	!	!	!	!	!	!LO:DY:b
4GG/	8d'\J)	.	8b'\L 8dd	.	(16bb\LL	pp
.	.	.	.	.	16ddd\J	.
.	(8.G^>\L	.	8g'\J 8b	.	16gg\L	.
.	.	.	.	.	16bb\	.
8GG/	.	.	8r	.	16dd\	.
.	16B\Jk)	.	.	.	16gg\JJ)	.
=52	=52	=52	=52	=52	=52	=52
*^	*	*	*	*	*	*
8DD/	2DD\	(16B\LL	.	8r	.	8r	.
.	.	16A'\JJ)	.	.	.	.	.
4D/	.	4A\	.	8cc'\L 8dd	.	(16ccc\LL	.
.	.	.	.	.	.	16ddd\J	.
.	.	.	.	8a'\J 8cc	.	16ff#\L	.
.	.	.	.	.	.	16ccc\	.
8D/	.	(16A\LL	.	8r	.	16dd\	.
.	.	16G#X\JJ	.	.	.	16ff#\JJ)	.
=53	=53	=53	=53	=53	=53	=53	=53
8DD/	2DD\	8A'\L)	.	8r	.	8r	.
.	.	(<8qA/	.	.	.	.	.
4D/	.	8c'\J)	.	8cc'\L 8ee	.	(16ccc\LL	.
.	.	.	.	.	.	16eee\J	.
.	.	(8.F#^>\L	.	8a'\J 8cc	.	16ff#\L	.
.	.	.	.	.	.	16ccc\	.
8D/	.	.	.	8r	.	16dd\	.
.	.	16A\Jk)	.	.	.	16ff#\JJ)	.
*v	*v	*	*	*	*	*	*
=54	=54	=54	=54	=54	=54	=54
8GGG/	(16A\LL	.	8r	.	8r	.
.	16G'\JJ)	.	.	.	.	.
4GG/	4G\	.	8b'\L 8dd	.	(16bb\LL	.
.	.	.	.	.	16ddd\J	.
.	.	.	8g'\J 8b	.	16gg\L	.
.	.	.	.	.	16bb\	.
8GG/	(16B\LL	.	8r	.	16dd\	.
.	16A\JJ	.	.	.	16gg\JJ)	.
=55	=55	=55	=55	=55	=55	=55
*^	*	*	*	*	*	*
8GG\L	4GG/	8B'\L)	.	8r	.	8r	.
.	.	(<8qB/	.	.	.	.	.
8G\J	.	8d'\J)	.	8b'\L 8dd	.	(16bb\LL	.
.	.	.	.	.	.	16ddd\J	.
8FFn\L	4FFn/	(8.G#X^>\L	.	8g#X'\J 8b	.	16gg#X\L	.
.	.	.	.	.	.	16bb\	.
8Fn\J	.	.	.	8r	.	16dd\	.
.	.	16B\Jk)	.	.	.	16gg#\JJ)	.
=56	=56	=56	=56	=56	=56	=56	=56
8EE/	2EE\	(16Gn\LL 16B	.	8r	.	8r	.
.	.	16A'\JJ)	.	.	.	.	.
4E/	.	4G\ 4A	.	8cc#X'\L 8ee	.	(16ccc#X\LL	.
.	.	.	.	.	.	16eee\J	.
.	.	.	.	8gn'\J 8cc#	.	16ggn\L	.
.	.	.	.	.	.	16ccc#\	.
8E/	.	(16A\LL	.	8r	.	16ee\	.
.	.	16G#X\JJ	.	.	.	16gg\JJ)	.
!LO:LB:g=original	!LO:LB:g=original	!LO:LB:g=original	!	!LO:LB:g=original	!	!LO:LB:g=original	!
=57	=57	=57	=57	=57	=57	=57	=57
4EE-X/	8EE-\L	8A'\L)	.	8r	.	8r	.
.	.	(<8qA/	.	.	.	.	.
.	8E-X\J	8c'\J)	.	8ccn'\L 8ee-X	.	(16cccn\LL	.
.	.	.	.	.	.	16eee-X\J	.
4DD/	8DD\L	(8.F#\L	.	8a'\J 8cc	.	16ff#\L	.
.	.	.	.	.	.	16ccc\	.
.	8D\J	.	.	8r	.	16dd\	.
.	.	16A\Jk)	.	.	.	16ff#\JJ)	.
=58	=58	=58	=58	=58	=58	=58	=58
8GGG/	2GGG\	(16A\LL	.	8r	.	8r	.
.	.	16G\JJ)	.	.	.	.	.
4GG/	.	4G\	.	8b'\L 8dd	.	(16bb\LL	.
.	.	.	.	.	.	16ddd\J	.
.	.	.	.	8g'\J 8b	.	16gg\L	.
.	.	.	.	.	.	16bb\	.
8GG/	.	(16G\LL	.	8r	.	16dd\	.
.	.	16F#\JJ	.	.	.	16gg\JJ)	.
*v	*v	*	*	*	*	*	*
=59	=59	=59	=59	=59	=59	=59
!	!	!	!	!	!	!LO:DY:b
2GGG/ 2GG	8G'\L)	.	8g'/L	.	8r	f
!	!	!LO:DY:b	!	!	!	!
.	8D'\ 8G 8B	mf	8g'/J	.	8b'\ 8gg	.
.	8G'\ 8B 8d	.	4g^</	.	8.b^>\L 8.gg	.
.	8D'\J 8G 8B	.	.	.	.	.
.	.	.	.	.	16dd\Jk 16ff#	.
=60	=60	=60	=60	=60	=60	=60
2CC/ 2C	8r	.	8g'/	.	(16dd\LL 16ff#	.
.	.	.	.	.	16cc\JJ) 16ee	.
.	8E'\L 8G 8c	.	4g^/	.	4cc^\ 4ee	.
.	8G'\ 8c 8e	.	.	.	.	.
.	8E'\J 8G 8c	.	8g/	.	16cc\LL 16ee	.
.	.	.	.	.	16dd#X\JJ	.
=61	=61	=61	=61	=61	=61	=61
*	*	*	*	*below	*	*
2CC/ 2C	8r	.	(16cc\LL	2	(16ee\LL	<
.	.	.	16b\	3	16dd#X\	.
.	8E'\L 8G 8c	.	16cc\	.	16ee\	.
.	.	.	16ddn\JJ	.	16ff#\JJ	[
.	8G'\ 8c 8e	.	16ff#\LL	2	16aa\LL	>
.	.	.	16ee\	1	16gg\	.
.	8E'\J 8G 8c	.	16dd\	.	16ff#\	.
.	.	.	16cc\JJ)	.	16ee\JJ)	]
=62	=62	=62	=62	=62	=62	=62
2GGG/ 2GG	8r	.	(16cc\LL	.	(16ee\LL	.
.	.	.	16b'\JJ)	.	16ddn'\JJ)	.
.	8D'\ 8G 8B	.	4b^>\	.	4dd^>\	.
.	4G^>\ 4B 4d	.	.	.	.	.
.	.	.	(16b\LL	.	(16dd\LL	>
.	.	.	16a\JJ	.	16cc\JJ	]]
=63	=63	=63	=63	=63	=63	=63
!	!	!LO:DY:b	!	!	!	!LO:DY:b
(<4GG/ 4G	8r	p	8g'/)	.	8dd\L)	p
.	.	.	.	.	(<8qb/	.
.	8B'\L 8d	.	8r	.	8dd'\J)	.
4FFn/ 4Fn	8r	.	4r	.	(8.g#X/L	.
.	8B'\J 8d	.	.	.	.	.
.	.	.	.	.	16b/Jk)	.
!LO:LB:g=original	!LO:LB:g=original	!	!LO:LB:g=original	!	!LO:LB:g=original	!
=64	=64	=64	=64	=64	=64	=64
2EE/) 2E	8r	.	2r	.	(16b/LL	.
.	.	.	.	.	16a'/JJ)	.
.	8G'\L 8A 8c#X	.	.	.	4a/	.
.	8A'\ 8c# 8e	.	.	.	.	.
.	8G'\J 8A 8c#	.	.	.	(16a/LL	.
.	.	.	.	.	16g#X/JJ	.
=65	=65	=65	=65	=65	=65	=65
(4EE-X/ 4E-X	8r	.	2r	.	8a'/L)	.
.	.	.	.	.	(<8qa/	.
.	8A'\L 8cn	.	.	.	8cc'/J)	.
4DD/ 4D	8r	.	.	.	(8.f#/L	.
.	8A'\J 8c	.	.	.	.	.
.	.	.	.	.	16a/Jk)	.
=66	=66	=66	=66	=66	=66	=66
2GGG/) 2GG	8r	.	4r	.	(16a/LL	.
.	.	.	.	.	16g'/JJ)	.
.	8D'\ 8G 8B	.	.	.	4g/	.
.	4G^>\ 4B 4d	.	8r	.	.	.
!	!	!	!	!	!	!LO:DY:b
.	.	.	(<16g/LL	.	(>16gg\LL	f
.	.	.	16f#/JJ	.	16ff#\JJ	.
=67	=67	=67	=67	=67	=67	=67
!	!	!LO:DY:b	!	!	!	!
2GGG/ 2GG	8r	f	8g'\L)	.	8gg'\L)	.
.	8D'\L 8G 8B	.	8b'\J 8gg	.	8bb'\J 8ggg	.
.	8G'\ 8B 8d	.	8.b^>\L 8.gg	.	8.bb^>\L 8.ggg	.
.	8D'\J 8G 8B	.	.	.	.	.
.	.	.	16dd\Jk 16ff#	.	16ddd\Jk 16fff#	.
=68	=68	=68	=68	=68	=68	=68
2GGG/ 2GG	8r	.	(16dd\LL 16ff#	.	(16ddd\LL 16fff#	.
.	.	.	16cc'\JJ) 16ee	.	16ccc'\JJ) 16eee	.
.	8E'\L 8G 8c	.	4cc^>\ 4ee	.	4ccc^>\ 4eee	.
.	8G'\J 8c 8e	.	.	.	.	.
.	(>16c\LL	.	(16ee\LL	.	(16eee\LL	.
.	16B\JJ	.	16dd#X\JJ	.	16ddd#X\JJ	.
=69	=69	=69	=69	=69	=69	=69
8GGG'/L 8GG	16c\LL	<	16ee\LL	.	16eee\LL	.
.	16B\	.	16dd#X\	.	16ddd#X\	.
8GG'/	16c\	.	16ee\	.	16eee\	.
.	16dn\JJ	[	16ff#\JJ	.	16fff#\JJ	.
8C'/	16e\LL	>	16aa\LL	.	16aaa\LL	.
.	16d\	.	16gg\	.	16ggg\	.
8GG'/J	16c\	.	16ff#\	.	16fff#\	.
.	16B\JJ)	]	16ee\JJ)	.	16eee\JJ)	.
!LO:LB:g=original	!LO:LB:g=original	!	!LO:LB:g=original	!	!LO:LB:g=original	!
=70	=70	=70	=70	=70	=70	=70
2GGG/ 2GG	(16c\LL	.	(16ee\LL	.	(16eee\LL	.
.	16B\J)	.	16ddn'\JJ)	.	16dddn'\JJ)	.
.	8B'\J	.	4dd\	.	4ddd\	.
!	!	!LO:DY:b	!	!	!	!
.	8G'\L 8B 8d	p	.	.	.	.
!	!	!	!	!	!	!LO:DY:b
.	8D'\J 8G 8B	.	8r	.	(16dd\LL	p
.	.	.	.	.	16cc\JJ	.
=71	=71	=71	=71	=71	=71	=71
(<4GG/	8r	.	2r	.	8b'\L)	.
.	.	.	.	.	(<8qb/	.
.	8G'\L 8B 8d	.	.	.	8dd'\J)	.
4EE/	8G'\ 8c#X	.	.	.	(8.g/L	.
.	8E'\J 8G	.	.	.	.	.
.	.	.	.	.	16b/Jk)	.
=72	=72	=72	=72	=72	=72	=72
2EE-X/)	8r	.	2r	.	(16b/LL	.
.	.	.	.	.	16a'/JJ)	.
.	8E-X'\L 8F# 8cn	.	.	.	4a/	.
.	8F#'\ 8c 8e-X	.	.	.	.	.
.	8E-'\J 8F# 8c	.	.	.	(<16a/LL	.
.	.	.	.	.	16g#X/JJ	.
=73	=73	=73	=73	=73	=73	=73
2DD/	8r	.	2r	.	8a'\L)	.
.	.	.	.	.	(<8qa/	.
.	8D'^>\L 8F# 8c	.	.	.	8cc'\J)	.
.	8F#'\ 8c 8d	.	.	.	(8.f#/L	.
.	8D'^>\J 8F# 8c	.	.	.	.	.
.	.	.	.	.	16a/Jk)	.
=74	=74	=74	=74	=74	=74	=74
!	!	!LO:HP:t=poco a poco cresc. molto	!	!	!	!LO:HP:t=poco a poco cresc. molto
2GGG/ 2GG	8r	<	2r	.	(16a/LL	<
.	.	.	.	.	16g/J)	.
.	8G'^>\L 8B 8d	.	.	.	8g'^>/J	.
.	8G'\ 8B-X 8c#X	.	.	.	(16f#/LL	.
.	.	.	.	.	16e/J)	.
.	8G'^>\J 8A 8cn	.	.	.	8e'^>/J	.
=75	=75	=75	=75	=75	=75	=75
2GGG/ 2GG	8r	.	2r	.	(16b/LL	.
.	.	.	.	.	16a/J)	.
.	8G'^>\L 8d 8fn	.	.	.	8a'^>/J	.
.	8G'\ 8c#X 8e	.	.	.	(16g/LL	.
.	.	.	.	.	16f#/J)	.
.	8G'^>\J 8cn 8e-X	.	.	.	8f#'^>/J	.
=76	=76	=76	=76	=76	=76	=76
2GGG/ 2GG	8r	.	8r	.	(16cc\LL	.
.	.	.	.	.	16b\J)	.
.	8G'^>\L	.	8e'/L 8g	.	8b'^>\J	.
.	8G'\	.	8d#X'/ 8f#X	.	(16a/LL	.
.	.	.	.	.	16g#X/J)	.
.	8G'^>\J	.	8dn'/J 8fn	.	8g#'^>/J	.
!LO:LB:g=original	!LO:LB:g=original	!	!LO:LB:g=original	!	!LO:LB:g=original	!
=77	=77	=77	=77	=77	=77	=77
2GGG/ 2GG	8r	.	8r	.	(16ee\LL	.
.	.	.	.	.	16dd\J)	.
.	8G'^>\L 8d	.	8g'/L 8b-X	.	8dd'^>\J	<
.	8G'\ 8d	.	8f#'/ 8a	.	(16cc#X\LL	.
.	.	.	.	.	16dd\	.
.	8G'^>\J 8d	.	8a/J 8ccn	.	16ee\	.
.	.	.	.	.	16ff#\JJ)	[
=78	=78	=78	=78	=78	=78	=78
!	!	!	!	!	!	!LO:DY:b
2GGG/ 2GG	8r	f	8a'/L	.	(16aa\LL	f
.	.	.	.	.	16gg\J)	.
.	8G'^>\L 8B 8d	.	8g'^>/	.	8gg'^>\J	.
.	8G'\ 8B-X 8c#X	.	8g'/	.	(16ff#\LL	.
.	.	.	.	.	16ee\J)	.
.	8G'^>\J 8A 8cn	.	8g'^>/J	.	8ee'^>\J	.
=79	=79	=79	=79	=79	=79	=79
2GGG/ 2GG	8r	.	8b'\L	.	(16bb\LL	.
.	.	.	.	.	16aa\J)	.
.	8G'^>\L 8B 8d	.	8b'^>\J	.	8aa'^>\J	.
.	8G'\ 8c#X 8e	.	8b-X'/L	.	(16gg\LL	.
.	.	.	.	.	16ff#\J)	.
.	8G'^>\J 8cn 8e-X	.	8a'^>/J	.	8ff#'^>\J	.
=80	=80	=80	=80	=80	=80	=80
2GGG/ 2GG	8r	.	8cc'\L	.	(16ccc\LL	.
.	.	.	.	.	16bb\J)	.
.	8G'^>\L 8e 8g	.	8bn'^>\J	.	8bb'^>\J	.
.	8G'\ 8d#X 8f#	.	8cc'\L	.	(16aa\LL	.
.	.	.	.	.	16gg#X\J)	.
.	8G'^>\J 8dn 8fn	.	8b'^>\J	.	8gg#'^>\J	.
=81	=81	=81	=81	=81	=81	=81
2GGG/ 2GG	8r	.	8ee'\L	.	(16eee\LL	.
.	.	.	.	.	16ddd\J)	.
.	8G'^>\L 8d	.	8g'\J 8b-X 8dd	.	8ddd'^>\J	.
.	8G'\ 8d	.	8f#'/L 8a	.	(16ccc#X\LL	.
.	.	.	.	.	16ddd\	.
.	8G'^>\J 8d	.	8a'/J 8ccn	.	16eee\	.
.	.	.	.	.	16fff#\JJ)	.
=82	=82	=82	=82	=82	=82	=82
!	!	!LO:DY:b	!	!	!	!LO:DY:b
2GGG/ 2GG	8r	ff	2ryy	.	16aa\LL 16aaa	ff
.	.	.	.	.	16g</ 16gg<	.
.	8G'^>\L 8B 8d	.	.	.	8g<^/JJ 8gg</ 8ggg^\	.
.	8G'\ 8B-X 8c#X	.	.	.	16ff#\LL 16fff#	.
.	.	.	.	.	16e</ 16ee<	.
.	8G'^>\J 8A 8cn	.	.	.	8e<^/JJ 8ee</ 8eee^\	.
=83	=83	=83	=83	=83	=83	=83
2GGG/ 2GG	8r	.	2ryy	.	16aa\LL 16aaa	.
.	.	.	.	.	16g</ 16gg<	.
.	8G'^\L 8Bn 8d	.	.	.	8g<^/JJ 8gg</ 8ggg^\	.
.	8G'\ 8B-X 8c#X	.	.	.	16ff#\LL 16fff#	.
.	.	.	.	.	16e</ 16ee<	.
.	8G'^\J 8A 8cn	.	.	.	8e<^/JJ 8ee</ 8eee^\	.
!LO:LB:g=original	!LO:LB:g=original	!	!LO:LB:g=original	!	!LO:LB:g=original	!
=84	=84	=84	=84	=84	=84	=84
2GGG/ 2GG	8r	.	2ryy	.	16aa\LL 16aaa	.
.	.	.	.	.	16g</ 16gg<	.
.	8G'^>\L 8Bn 8d	.	.	.	8g<^/JJ 8gg</ 8ggg^\	.
.	8G'\ 8B-X 8c#X	.	.	.	16ff#\LL 16fff#	.
.	.	.	.	.	16e</ 16ee<	.
.	8G'^>\J 8A 8cn	.	.	.	8e<^/JJ 8ee</ 8eee^\	.
=85	=85	=85	=85	=85	=85	=85
2GGG/ 2GG	8r	.	2ryy	.	16aa\LL 16aaa	.
.	.	.	.	.	16g</ 16gg<	.
.	8G'^>\L 8Bn 8d	.	.	.	8g<^/JJ 8gg</ 8ggg^\	.
.	8G'\ 8B-X 8c#X	.	.	.	16ff#\LL 16fff#	.
.	.	.	.	.	16e</ 16ee<	.
.	8G'^>\J 8A 8cn	.	.	.	8e<^/JJ 8ee</ 8eee^\	.
=86	=86	=86	=86	=86	=86	=86
*	*	*	*	*	*8va	*
.	.	.	(<8qaa/	.	(<8qaaa/	<
8GGG'^>/ 8GG	8G'^>\ 8Bn 8d	.	2ggTT\)	.	2gggTT\)	.
8r	8r	.	.	.	.	.
8EEE'^>/ 8EE	8G'^>\ 8B 8e	.	.	.	.	.
8r	8r	.	.	.	.	.
=87	=87	=87	=87	=87	=87	=87
8GGG'^>/ 8GG	8G'^>\ 8B 8d	.	4gg\	.	4ggg\	.
8r	8r	.	.	.	.	.
*	*	*	*	*below	*	*
!	!	!	!LO:TUP:a	!	!LO:TUP:a	!
8EEE'^>/ 8EE	8G'^>\ 8B 8e	.	28gg\LL	1	28ggg\LL	.
.	.	.	28aa\	4	28aaa\	.
.	.	.	28bb\	.	28bbb\	.
.	.	.	28ccc\	.	28cccc\	.
8r	8r	.	.	.	.	.
.	.	.	28ddd\	.	28dddd\	.
.	.	.	28eee\	.	28eeee\	.
.	.	.	28fff#\JJ	.	28ffff#\JJ	[
=88	=88	=88	=88	=88	=88	=88
!	!	!LO:DY:b	!	!	!	!LO:DY:b
8GGG'/ 8GG	8G'\ 8B 8d 8g	sf	8ggg'\	.	8gggg'\	sf
*	*	*	*	*	*X8va	*
8r	8r	.	8r	.	8r	.
4r	4r	.	4r	.	4r	.
=89	=89	=89	=89	=89	=89	=89
4GGG^^</ 4GG	4D^^>\ 4G 4B 4d	.	4b^^>\ 4dd 4gg	.	4bb^^>\ 4ddd 4ggg	.
8.r	8.r	.	4r	.	8.r	.
16GGG/ 16GG	16G\	.	.	.	16g/	.
=90	=90	=90	=90	=90	=90	=90
!	!	!LO:DY:b	!	!	!	!LO:DY:b
2GGG;>/ 2GG	2G;>\	sf	2r;>	.	2g;>/	sf
==	==	==	==	==	==	==
*-	*-	*-	*-	*-	*-	*-
!!!system-decoration: {(s1,s2)}{(s3,s4)}
!!!RDF**kern: < = below
!!!RDF**kern: > = above
!!!ENC: Filip Voros
!!!END: 2022-02-01
!!!ENC: Marta Chmielewska
!!!END: 2022-02-09
